!!!COM: van-morrison
!!!OTL: brown-eyed-girl
!!!RNB: hooktheoryid: YRzojGekmDe
**kern	**text
*clefG2	*
*k[f#]	*
*M4/4	*
=1	=1
2r	G
8dd	.
8cc	.
8b	.
8cc	.
=2	=2
8cc	C
4.dd	.
2r	.
=3	=3
4.r	G
4b	.
8a	.
8g	.
[8a	.
=4	=4
8a]	D7
4.b	.
2r	.
=5	=5
4.r	G
4dd	.
4dd	.
8dd	.
=6	=6
8dd	C
4.cc	.
2r	.
=7	=7
2r	G
8b	.
8a	.
8g	.
8a	.
=8	=8
4.b	D7
2r	.
8r	.
=9	=9
2r	G
8dd	.
8dd	.
8dd	.
8dd	.
=10	=10
8dd	C
4cc	.
4dd	.
4.cc	.
=11	=11
2r	G
8b	.
8b	.
8b	.
8b	.
=12	=12
8b	D7
4.a	.
2r	.
=13	=13
4r	G
8dd	.
8dd	.
4dd	.
8dd	.
[8dd	.
=14	=14
8dd]	C
4cc	.
4dd	.
4.r	.
=15	=15
4r	G
4b	.
4.r	.
8g	.
=16	=16
4a	D7
8a	.
4a	.
8b	.
8a	.
8g	.
=17	=17
1r	.
*-	*-